images/logo.svg

<svg width="152" height="32" viewBox="0 0 152 32" fill="none" xmlns="http://www.w3.org/2000/svg">
<path d="M58.7538 24.664L56.2408 12.7685H58.7991L61.3234 23.6783L60.7461 23.7007L62.3195 12.7685H65.9418L63.542 24.664H58.7538ZM50.3998 24.664L48 12.7685H51.6223L53.1958 23.7007L52.6298 23.6783L55.1315 12.7685H57.6897L55.1994 24.664H50.3998Z" fill="white"/>
<path d="M68.8721 19.7579V17.4617H76.8412L76.5016 18.0442C76.5016 17.9844 76.5016 17.9284 76.5016 17.8762C76.5016 17.8164 76.5016 17.7604 76.5016 17.7082C76.5016 17.2825 76.3997 16.8755 76.1959 16.4872C75.9922 16.0915 75.6752 15.7704 75.2451 15.524C74.8225 15.2701 74.2791 15.1431 73.615 15.1431C72.9509 15.1431 72.3774 15.285 71.8944 15.5688C71.419 15.8451 71.053 16.2446 70.7964 16.7673C70.5474 17.29 70.4229 17.921 70.4229 18.6602C70.4229 19.4219 70.5436 20.0753 70.7851 20.6204C71.0341 21.1581 71.4001 21.5725 71.8831 21.8637C72.3736 22.1549 72.9811 22.3006 73.7056 22.3006C74.1735 22.3006 74.5772 22.2595 74.9168 22.1774C75.2564 22.0877 75.5319 21.9757 75.7432 21.8413C75.962 21.7069 76.128 21.5576 76.2412 21.3933C76.3544 21.229 76.4223 21.0685 76.445 20.9116H79.9088C79.8635 21.4119 79.69 21.9048 79.3881 22.3902C79.0863 22.8681 78.6674 23.3012 78.1316 23.6895C77.5958 24.0703 76.9431 24.3727 76.1733 24.5968C75.4111 24.8208 74.5395 24.9328 73.5584 24.9328C72.2303 24.9328 71.0719 24.6714 70.0833 24.1487C69.0947 23.6185 68.3287 22.8905 67.7854 21.9645C67.242 21.0311 66.9703 19.9558 66.9703 18.7386C66.9703 17.5065 67.2458 16.4275 67.7967 15.5016C68.3551 14.5681 69.1286 13.8438 70.1172 13.3286C71.1134 12.8058 72.2642 12.5445 73.5698 12.5445C74.9055 12.5445 76.0601 12.8096 77.0336 13.3398C78.0071 13.8625 78.758 14.598 79.2862 15.5464C79.8145 16.4872 80.0786 17.5849 80.0786 18.8395C80.0786 19.0261 80.0748 19.2054 80.0673 19.3771C80.0598 19.5488 80.0484 19.6758 80.0333 19.7579H68.8721Z" fill="white"/>
<path d="M89.505 24.9216C88.5541 24.9216 87.6825 24.6714 86.8901 24.1711C86.0977 23.6708 85.4638 22.995 84.9884 22.1437C84.513 21.285 84.2753 20.3217 84.2753 19.2539C84.2753 19.224 84.2753 19.1979 84.2753 19.1755C84.2753 19.1456 84.2753 19.112 84.2753 19.0747L85.7921 19.0411C85.7921 19.0635 85.7921 19.0859 85.7921 19.1083C85.7921 19.1307 85.7921 19.1531 85.7921 19.1755C85.7921 19.7281 85.9279 20.2134 86.1996 20.6316C86.4713 21.0423 86.8222 21.3597 87.2523 21.5837C87.6825 21.8077 88.1315 21.9197 88.5994 21.9197C89.3691 21.9197 90.037 21.6584 90.603 21.1357C91.1765 20.6055 91.4633 19.7803 91.4633 18.6602C91.4633 17.5401 91.1803 16.7262 90.6143 16.2184C90.0483 15.7032 89.3767 15.4456 88.5994 15.4456C88.1315 15.4456 87.6825 15.5576 87.2523 15.7816C86.8222 15.9981 86.4713 16.308 86.1996 16.7113C85.9279 17.1145 85.7921 17.5961 85.7921 18.1562L84.2753 18.0666C84.2753 16.9913 84.513 16.0429 84.9884 15.2215C85.4638 14.3927 86.0977 13.743 86.8901 13.2726C87.6825 12.7946 88.5541 12.5557 89.505 12.5557C90.4785 12.5557 91.3878 12.7909 92.233 13.2614C93.0783 13.7318 93.7612 14.4225 94.2819 15.3335C94.8102 16.2446 95.0743 17.3535 95.0743 18.6602C95.0743 20.0268 94.8177 21.1767 94.3046 22.1101C93.7914 23.0361 93.1122 23.738 92.267 24.2159C91.4218 24.6864 90.5011 24.9216 89.505 24.9216ZM82.2717 24.664V7.15681H85.7921V24.664H82.2717Z" fill="white"/>
<path d="M99.1972 25C98.6765 25 98.235 24.8208 97.8728 24.4624C97.5105 24.1039 97.3294 23.6671 97.3294 23.1518C97.3294 22.6441 97.5105 22.211 97.8728 21.8525C98.235 21.4941 98.6765 21.3149 99.1972 21.3149C99.7103 21.3149 100.148 21.4941 100.51 21.8525C100.873 22.211 101.054 22.6441 101.054 23.1518C101.054 23.6671 100.873 24.1039 100.51 24.4624C100.148 24.8208 99.7103 25 99.1972 25Z" fill="white"/>
<path d="M104.183 24.664V15.4568H101.681V12.7685H104.183V11.9508C104.183 11.1593 104.288 10.4835 104.5 9.92346C104.718 9.35594 105.013 8.8855 105.383 8.51213C105.752 8.1313 106.167 7.83261 106.628 7.61605C107.096 7.39203 107.575 7.23522 108.065 7.14561C108.563 7.04854 109.046 7 109.514 7C110.012 7 110.382 7.02987 110.624 7.08961C110.873 7.14188 111.039 7.18668 111.122 7.22402V9.92346C111.031 9.89359 110.869 9.85999 110.635 9.82265C110.409 9.78531 110.163 9.76665 109.899 9.76665C109.461 9.76665 109.099 9.82265 108.812 9.93466C108.526 10.0467 108.299 10.211 108.133 10.4275C107.967 10.6366 107.85 10.8867 107.782 11.178C107.714 11.4617 107.68 11.7716 107.68 12.1077V12.7685H110.907V15.4568H107.68V24.664H104.183Z" fill="white"/>
<path d="M118.273 24.9216C116.975 24.9216 115.832 24.6565 114.844 24.1263C113.855 23.5961 113.081 22.8681 112.523 21.9421C111.972 21.0087 111.697 19.9334 111.697 18.7162C111.697 17.5065 111.972 16.4387 112.523 15.5128C113.081 14.5793 113.855 13.855 114.844 13.3398C115.832 12.8171 116.975 12.5557 118.273 12.5557C119.571 12.5557 120.715 12.8171 121.703 13.3398C122.692 13.855 123.462 14.5793 124.013 15.5128C124.571 16.4387 124.85 17.5065 124.85 18.7162C124.85 19.9334 124.571 21.0087 124.013 21.9421C123.462 22.8681 122.692 23.5961 121.703 24.1263C120.715 24.6565 119.571 24.9216 118.273 24.9216ZM118.273 22.1661C118.885 22.1661 119.417 22.0243 119.87 21.7405C120.322 21.4568 120.673 21.0573 120.922 20.542C121.171 20.0193 121.296 19.4107 121.296 18.7162C121.296 18.0218 121.171 17.4207 120.922 16.9129C120.673 16.3976 120.322 16.0019 119.87 15.7256C119.417 15.4493 118.885 15.3111 118.273 15.3111C117.67 15.3111 117.138 15.4493 116.677 15.7256C116.225 16.0019 115.874 16.3976 115.625 16.9129C115.376 17.4207 115.251 18.0218 115.251 18.7162C115.251 19.4107 115.376 20.0193 115.625 20.542C115.874 21.0573 116.225 21.4568 116.677 21.7405C117.138 22.0243 117.67 22.1661 118.273 22.1661Z" fill="white"/>
<path d="M130.676 7.15681V24.664H127.212V7.15681H130.676Z" fill="white"/>
<path d="M133.34 24.664V12.7685H136.815V24.664H133.34ZM135.072 10.8307C134.529 10.8307 134.053 10.6889 133.646 10.4051C133.246 10.1213 133.046 9.72184 133.046 9.2066C133.046 8.68388 133.246 8.28065 133.646 7.99689C134.053 7.71313 134.529 7.57125 135.072 7.57125C135.623 7.57125 136.098 7.71313 136.498 7.99689C136.906 8.28065 137.11 8.68388 137.11 9.2066C137.11 9.72931 136.906 10.1325 136.498 10.4163C136.098 10.6926 135.623 10.8307 135.072 10.8307Z" fill="white"/>
<path d="M145.423 24.9216C144.125 24.9216 142.982 24.6565 141.993 24.1263C141.005 23.5961 140.231 22.8681 139.673 21.9421C139.122 21.0087 138.846 19.9334 138.846 18.7162C138.846 17.5065 139.122 16.4387 139.673 15.5128C140.231 14.5793 141.005 13.855 141.993 13.3398C142.982 12.8171 144.125 12.5557 145.423 12.5557C146.721 12.5557 147.865 12.8171 148.853 13.3398C149.842 13.855 150.611 14.5793 151.162 15.5128C151.721 16.4387 152 17.5065 152 18.7162C152 19.9334 151.721 21.0087 151.162 21.9421C150.611 22.8681 149.842 23.5961 148.853 24.1263C147.865 24.6565 146.721 24.9216 145.423 24.9216ZM145.423 22.1661C146.034 22.1661 146.567 22.0243 147.019 21.7405C147.472 21.4568 147.823 21.0573 148.072 20.542C148.321 20.0193 148.446 19.4107 148.446 18.7162C148.446 18.0218 148.321 17.4207 148.072 16.9129C147.823 16.3976 147.472 16.0019 147.019 15.7256C146.567 15.4493 146.034 15.3111 145.423 15.3111C144.819 15.3111 144.287 15.4493 143.827 15.7256C143.374 16.0019 143.023 16.3976 142.774 16.9129C142.525 17.4207 142.401 18.0218 142.401 18.7162C142.401 19.4107 142.525 20.0193 142.774 20.542C143.023 21.0573 143.374 21.4568 143.827 21.7405C144.287 22.0243 144.819 22.1661 145.423 22.1661Z" fill="white"/>
<path d="M2.66667 24H5.33333C6.80889 24 8 22.8089 8 21.3333V18.6667C8 17.1911 6.80889 16 5.33333 16H2.66667C1.19111 16 0 17.1911 0 18.6667V21.3333C0 22.8089 1.19111 24 2.66667 24Z" fill="#D8D8EB"/>
<path d="M10.6667 16H13.3333C14.8089 16 16 14.8089 16 13.3333V10.6667C16 9.19111 14.8089 8 13.3333 8H10.6667C9.19111 8 8 9.19111 8 10.6667V13.3333C8 14.8089 9.19111 16 10.6667 16Z" fill="#D8D8EB"/>
<path d="M21.3333 24H18.6667C17.1911 24 16 22.8089 16 21.3333V18.6667C16 17.1911 17.1911 16 18.6667 16H21.3333C22.8089 16 24 17.1911 24 18.6667V21.3333C24 22.8089 22.8089 24 21.3333 24Z" fill="#D8D8EB"/>
<path d="M13.3333 24H10.6667C9.19111 24 8 25.1911 8 26.6667V29.3333C8 30.8089 9.19111 32 10.6667 32H13.3333C14.8089 32 16 30.8089 16 29.3333V26.6667C16 25.1911 14.8089 24 13.3333 24Z" fill="#D8D8EB"/>
<path d="M18.6667 8H21.3333C22.8089 8 24 6.80889 24 5.33333V2.66667C24 1.19111 22.8089 0 21.3333 0H18.6667C17.1911 0 16 1.19111 16 2.66667V5.33333C16 6.80889 17.1911 8 18.6667 8Z" fill="#D8D8EB"/>
<path d="M29.3333 16H26.6667C25.1911 16 24 14.8089 24 13.3333V10.6667C24 9.19111 25.1911 8 26.6667 8H29.3333C30.8089 8 32 9.19111 32 10.6667V13.3333C32 14.8089 30.8089 16 29.3333 16Z" fill="#D8D8EB"/>
<path d="M5.33398 16C6.80954 16 8.00065 14.8089 8.00065 13.3334C8.00065 14.8089 9.19176 16 10.6673 16C9.19176 16 8.00065 17.1912 8.00065 18.6667C8.00065 17.1912 6.80954 16 5.33398 16Z" fill="#D8D8EB"/>
<path d="M13.334 8.00004C14.8095 8.00004 16.0007 6.80893 16.0007 5.33337C16.0007 6.80893 17.1918 8.00004 18.6673 8.00004C17.1918 8.00004 16.0007 9.19115 16.0007 10.6667C16.0007 9.19115 14.8095 8.00004 13.334 8.00004Z" fill="#D8D8EB"/>
<path d="M13.334 24C14.8095 24 16.0007 22.8089 16.0007 21.3334C16.0007 22.8089 17.1918 24 18.6673 24C17.1918 24 16.0007 25.1912 16.0007 26.6667C16.0007 25.1912 14.8095 24 13.334 24Z" fill="#D8D8EB"/>
<path d="M21.334 16C22.8095 16 24.0007 14.8089 24.0007 13.3334C24.0007 14.8089 25.1918 16 26.6673 16C25.1918 16 24.0007 17.1912 24.0007 18.6667C24.0007 17.1912 22.8095 16 21.334 16Z" fill="#D8D8EB"/>
<path d="M13.334 16C14.8095 16 16.0007 14.8089 16.0007 13.3334C16.0007 14.8089 17.1918 16 18.6673 16C17.1918 16 16.0007 17.1912 16.0007 18.6667C16.0007 17.1912 14.8095 16 13.334 16Z" fill="#D8D8EB"/>
<path d="M21.334 8.00004C22.8095 8.00004 24.0007 6.80893 24.0007 5.33337C24.0007 6.80893 25.1918 8.00004 26.6673 8.00004C25.1918 8.00004 24.0007 9.19115 24.0007 10.6667C24.0007 9.19115 22.8095 8.00004 21.334 8.00004Z" fill="#D8D8EB"/>
<path d="M5.33398 24C6.80954 24 8.00065 22.8089 8.00065 21.3334C8.00065 22.8089 9.19176 24 10.6673 24C9.19176 24 8.00065 25.1912 8.00065 26.6667C8.00065 25.1912 6.80954 24 5.33398 24Z" fill="#D8D8EB"/>
<path d="M24 0H8C3.58172 0 0 3.58172 0 8V24C0 28.4183 3.58172 32 8 32H24C28.4183 32 32 28.4183 32 24V8C32 3.58172 28.4183 0 24 0Z" fill="#D8D8EB"/>
<path d="M28 22C28 18.6863 25.3137 16 22 16C18.6863 16 16 18.6863 16 22C16 25.3137 18.6863 28 22 28C25.3137 28 28 25.3137 28 22Z" fill="#010032"/>
</svg>

<svg width="152" height="32" fill="none" xmlns="http://www.w3.org/2000/svg"><path d="M58.754 24.664L56.24 12.768h2.558l2.524 10.91-.577.023 1.573-10.933h3.623l-2.4 11.896h-4.788zm-8.354 0L48 12.768h3.622l1.574 10.933-.566-.023 2.502-10.91h2.558L55.2 24.665h-4.8zm18.472-4.906v-2.296h7.97l-.34.582v-.336c0-.425-.102-.832-.306-1.22a2.341 2.341 0 00-.95-.964c-.423-.254-.967-.38-1.631-.38s-1.238.141-1.72.425a2.748 2.748 0 00-1.099 1.198c-.249.523-.373 1.154-.373 1.893 0 .762.12 1.415.362 1.96.25.538.615.953 1.098 1.244.49.29 1.098.437 1.823.437.468 0 .871-.041 1.21-.124.34-.09.616-.201.827-.336.219-.134.385-.283.498-.448.113-.164.181-.325.204-.481h3.464c-.046.5-.219.993-.52 1.478-.303.478-.722.911-1.257 1.3-.536.38-1.189.683-1.959.907-.762.224-1.633.336-2.615.336-1.328 0-2.486-.262-3.475-.784-.988-.53-1.754-1.259-2.298-2.184-.543-.934-.815-2.01-.815-3.226 0-1.233.276-2.312.827-3.237a5.733 5.733 0 012.32-2.173c.996-.523 2.147-.785 3.453-.785 1.336 0 2.49.266 3.464.796a5.498 5.498 0 012.252 2.206c.528.941.793 2.039.793 3.294 0 .186-.004.365-.012.537a3.044 3.044 0 01-.034.38h-11.16zm20.633 5.164a4.8 4.8 0 01-2.615-.75 5.552 5.552 0 01-1.902-2.028c-.475-.859-.713-1.822-.713-2.89v-.179l1.517-.034v.134c0 .553.136 1.038.408 1.457.271.41.622.728 1.052.952.43.224.88.336 1.347.336a2.86 2.86 0 002.004-.784c.574-.53.86-1.356.86-2.476 0-1.12-.283-1.934-.849-2.442a2.893 2.893 0 00-2.015-.772 2.88 2.88 0 00-1.347.336c-.43.216-.78.526-1.052.93-.272.402-.408.884-.408 1.444l-1.517-.09c0-1.075.238-2.023.713-2.844a5.268 5.268 0 011.902-1.95 4.967 4.967 0 012.615-.716c.974 0 1.883.235 2.728.705.845.47 1.528 1.162 2.049 2.073.528.91.792 2.02.792 3.326 0 1.367-.256 2.517-.77 3.45-.513.926-1.192 1.628-2.037 2.106a5.584 5.584 0 01-2.762.706zm-7.233-.258V7.157h3.52v17.507h-3.52zM99.197 25c-.52 0-.962-.18-1.324-.538a1.774 1.774 0 01-.544-1.31c0-.508.181-.941.544-1.3a1.812 1.812 0 011.324-.537c.513 0 .951.18 1.313.537.363.359.544.792.544 1.3 0 .515-.181.952-.544 1.31-.362.359-.8.538-1.313.538zm4.986-.336v-9.207h-2.502v-2.689h2.502v-.817c0-.792.105-1.468.317-2.028.218-.567.513-1.037.883-1.41.369-.382.784-.68 1.245-.897.468-.224.947-.38 1.437-.47A7.568 7.568 0 01109.514 7c.498 0 .868.03 1.11.09.249.052.415.097.498.134v2.7a3.635 3.635 0 00-.487-.101 4.529 4.529 0 00-.736-.056c-.438 0-.8.056-1.087.168a1.541 1.541 0 00-.679.492c-.166.21-.283.46-.351.751a3.986 3.986 0 00-.102.93v.66h3.227v2.689h-3.227v9.207h-3.497zm14.09.258c-1.298 0-2.441-.265-3.429-.796a5.91 5.91 0 01-2.321-2.184c-.551-.933-.826-2.009-.826-3.226 0-1.21.275-2.277.826-3.203a5.729 5.729 0 012.321-2.173c.988-.523 2.131-.784 3.429-.784s2.442.261 3.43.784a5.657 5.657 0 012.31 2.173c.558.926.837 1.993.837 3.203 0 1.217-.279 2.293-.837 3.226-.551.926-1.321 1.654-2.31 2.184-.988.53-2.132.796-3.43.796zm0-2.756c.612 0 1.144-.142 1.597-.425a2.833 2.833 0 001.052-1.199c.249-.523.374-1.131.374-1.826 0-.694-.125-1.295-.374-1.803a2.76 2.76 0 00-1.052-1.187c-.453-.277-.985-.415-1.597-.415-.603 0-1.135.138-1.596.415a2.76 2.76 0 00-1.052 1.187c-.249.508-.374 1.109-.374 1.803 0 .695.125 1.303.374 1.826.249.515.6.915 1.052 1.198.461.284.993.426 1.596.426zm12.403-15.009v17.507h-3.464V7.157h3.464zm2.664 17.507V12.768h3.475v11.896h-3.475zm1.732-13.833c-.543 0-1.019-.142-1.426-.426-.4-.284-.6-.683-.6-1.198 0-.523.2-.926.6-1.21.407-.284.883-.426 1.426-.426.551 0 1.026.142 1.426.426.408.284.612.687.612 1.21 0 .522-.204.925-.612 1.21-.4.276-.875.414-1.426.414zm10.351 14.091c-1.298 0-2.441-.265-3.43-.796a5.915 5.915 0 01-2.32-2.184c-.551-.933-.827-2.009-.827-3.226 0-1.21.276-2.277.827-3.203a5.733 5.733 0 012.32-2.173c.989-.523 2.132-.784 3.43-.784s2.442.261 3.43.784a5.654 5.654 0 012.309 2.173c.559.926.838 1.993.838 3.203 0 1.217-.279 2.293-.838 3.226-.551.926-1.32 1.654-2.309 2.184-.988.53-2.132.796-3.43.796zm0-2.756c.611 0 1.144-.142 1.596-.425a2.828 2.828 0 001.053-1.199c.249-.523.374-1.131.374-1.826 0-.694-.125-1.295-.374-1.803a2.755 2.755 0 00-1.053-1.187c-.452-.277-.985-.415-1.596-.415-.604 0-1.136.138-1.596.415a2.755 2.755 0 00-1.053 1.187c-.249.508-.373 1.109-.373 1.803 0 .695.124 1.303.373 1.826.249.515.6.915 1.053 1.198.46.284.992.426 1.596.426z" fill="#fff"/><path d="M2.667 24h2.666A2.663 2.663 0 008 21.333v-2.666A2.663 2.663 0 005.333 16H2.667A2.663 2.663 0 000 18.667v2.666A2.663 2.663 0 002.667 24zm8-8h2.666A2.663 2.663 0 0016 13.333v-2.666A2.663 2.663 0 0013.333 8h-2.666A2.663 2.663 0 008 10.667v2.666A2.663 2.663 0 0010.667 16zm10.666 8h-2.666A2.663 2.663 0 0116 21.333v-2.666A2.663 2.663 0 0118.667 16h2.666A2.663 2.663 0 0124 18.667v2.666A2.663 2.663 0 0121.333 24zm-8 0h-2.666A2.663 2.663 0 008 26.667v2.666A2.663 2.663 0 0010.667 32h2.666A2.663 2.663 0 0016 29.333v-2.666A2.663 2.663 0 0013.333 24zm5.334-16h2.666A2.663 2.663 0 0024 5.333V2.667A2.663 2.663 0 0021.333 0h-2.666A2.663 2.663 0 0016 2.667v2.666A2.663 2.663 0 0018.667 8zm10.666 8h-2.666A2.663 2.663 0 0124 13.333v-2.666A2.663 2.663 0 0126.667 8h2.666A2.663 2.663 0 0132 10.667v2.666A2.663 2.663 0 0129.333 16z" fill="#D8D8EB"/><path d="M5.334 16a2.663 2.663 0 002.667-2.667A2.663 2.663 0 0010.667 16a2.663 2.663 0 00-2.666 2.667A2.663 2.663 0 005.334 16zm8-8a2.663 2.663 0 002.667-2.667A2.663 2.663 0 0018.667 8a2.663 2.663 0 00-2.666 2.667A2.663 2.663 0 0013.334 8zm0 16a2.663 2.663 0 002.667-2.667A2.663 2.663 0 0018.667 24a2.663 2.663 0 00-2.666 2.667A2.663 2.663 0 0013.334 24zm8-8a2.663 2.663 0 002.667-2.667A2.663 2.663 0 0026.667 16a2.663 2.663 0 00-2.666 2.667A2.663 2.663 0 0021.334 16zm-8 0a2.663 2.663 0 002.667-2.667A2.663 2.663 0 0018.667 16a2.663 2.663 0 00-2.666 2.667A2.663 2.663 0 0013.334 16zm8-8a2.663 2.663 0 002.667-2.667A2.663 2.663 0 0026.667 8a2.663 2.663 0 00-2.666 2.667A2.663 2.663 0 0021.334 8zm-16 16a2.663 2.663 0 002.667-2.667A2.663 2.663 0 0010.667 24a2.663 2.663 0 00-2.666 2.667A2.663 2.663 0 005.334 24z" fill="#D8D8EB"/><path d="M24 0H8a8 8 0 00-8 8v16a8 8 0 008 8h16a8 8 0 008-8V8a8 8 0 00-8-8z" fill="#D8D8EB"/><path d="M28 22a6 6 0 10-12 0 6 6 0 0012 0z" fill="#010032"/></svg>
